X:1
T:Gosterwood, 76.76 D
T:Gosterwood, 76.76 D
T:English tune, arr. Ralph Vaughan Williams, 1906
T:Public Domain Courtesy of the Cyber Hymnal™
C:English tune, arr. Ralph Vaughan Williams, 1906
Z:Public Domain
Z:Courtesy of the Cyber Hymnal™
%%score ( 1 2 ) ( 3 4 )
L:1/8
Q:1/4=115
M:4/4
K:G
V:1 treble 
V:2 treble 
V:3 bass 
V:4 bass 
V:1
 [B,G]2 | [DG]3 [CE] [CF]2 [DG]2 | [EA]2 [DB]2 G2 [Fd]2 | [Ec]2 [DB]2 (AG) [CA]2 | [B,G]6 [B,G]2 | %5
 [DG]3 [CE] [CF]2 [DG]2 | [EA]2 [DB]2 G2 [Fd]2 | [Ec]2 [DB]2 (AG) [CA]2 | [B,G]6 (Bc) | %9
 [Gd]3 [Fc] [GB]2 [FA]2 | (B2 G2) [CE]2 [DB]2 | [Ec]2 [DB]2 [EA]2 (AF) | D6 (FG) | %13
 [DG]3 [DE] [DF]2 [DG]2 | A4 [GB]2 [=Fd]2 | [Ec]2 [DB]2 (AG) [CA]2 | [B,G]6 |] %17
V:2
 x2 | x8 | x4 G2 x2 | x4 C2 x2 | x8 | x8 | x4 G2 x2 | x4 C2 x2 | x6 G2 | x8 | D4 x4 | x6 C2 | %12
 D6 E2 | x8 | (G2 =F2) x4 | x4 C2 x2 | x6 |] %17
V:3
 [G,,G,]2 | [B,,G,]3 [C,G,] [A,,C]2 [B,,B,]2 | [C,A,]2 [D,F,]2 [E,G,]2 [B,,G,]2 | %3
 [C,G,]2 [D,G,]2 [E,G,]2 [D,F,]2 | [G,,G,]6 [G,,G,]2 | [B,,G,]3 [C,G,] [A,,C]2 [B,,B,]2 | %6
 [C,A,]2 [D,F,]2 [E,G,]2 [B,,G,]2 | [C,G,]2 [D,G,]2 [E,G,]2 [D,F,]2 | [G,,G,]6 D2 | %9
 [B,D]3 A, [G,B,]2 [D,D]2 | [B,,G,]4 [C,G,]2 [B,,^G,]2 | [A,,A,]2 [B,,D]2 [C,A,]2 [A,,A,]2 | %12
 [D,F,]2 [E,G,]2 [D,F,]2 [C,A,]2 | [B,,G,]3 [B,,G,] [C,A,]2 [B,,G,]2 | [A,,C]4 [G,,B,]2 [B,,G,]2 | %15
 [C,G,]2 [D,G,]2 [E,G,]2 [D,F,]2 | [G,,G,]6 |] %17
V:4
 x2 | x8 | x8 | x8 | x8 | x8 | x8 | x8 | x6 (G,A,) | x3 A, x4 | x8 | x8 | x8 | x8 | x8 | x8 | x6 |] %17

